X:33
T:Zwischen Berg und tiefem Tal...
B:Frau Nachtigall (Straburg - 1928)
Z:<anamnese@laposte.net> -- http://anamnese.fr.st
N:p.131
M:3/4
L:1/8
Q:1/4=120
K:G
D>D G2 B2 | B>A A>G A2 | D F A2 c2 | c2B2 z2 |: d>c B2d2 |
d>c c>B c2 | (c>B) A2 c2 | c>B B>A B2 | GB d2 BG | A2G2 z2:|
